src/lib/packages/icons/src/assets/filled/bone.svg

<svg width="24" height="24" viewBox="0 0 24 24" fill="none" xmlns="http://www.w3.org/2000/svg">
<path d="M5.50193 17.997C4.40993 17.998 3.48101 17.382 3.13901 16.344C2.56701 14.608 3.84698 13 5.49998 13C5.84598 13 6.17798 13.071 6.47898 13.198C7.04098 13.435 7.68602 13.314 8.11802 12.883L12.8819 8.11886C13.3229 7.67786 13.419 7.02303 13.185 6.44503C12.968 5.90903 12.929 5.28103 13.145 4.64303C13.399 3.89503 14.0359 3.30391 14.7989 3.09591C16.4769 2.63791 17.996 3.88791 18.001 5.4919C18.002 5.7729 18.222 5.99996 18.503 5.99996C19.598 5.99996 20.521 6.61997 20.863 7.65597C21.435 9.39197 20.1549 11 18.5019 11C18.1559 11 17.8239 10.929 17.5229 10.802C16.9609 10.565 16.316 10.6859 15.884 11.1169L11.12 15.8811C10.679 16.3221 10.583 16.9769 10.817 17.5549C11.034 18.0909 11.073 18.7189 10.857 19.3569C10.603 20.1049 9.96498 20.696 9.20298 20.904C7.52198 21.363 6.00195 20.1089 6.00095 18.5009C5.99995 18.2219 5.78093 17.997 5.50193 17.997Z" fill="currentColor"/>
</svg>

<svg xmlns="http://www.w3.org/2000/svg" width="24" height="24" fill="none"><path fill="currentColor" d="M5.502 17.997c-1.092.001-2.021-.615-2.363-1.653C2.567 14.608 3.847 13 5.5 13c.346 0 .678.071.979.198a1.492 1.492 0 0 0 1.639-.315l4.764-4.764c.44-.441.537-1.096.303-1.674a2.567 2.567 0 0 1-.04-1.802c.254-.748.89-1.34 1.654-1.547A2.506 2.506 0 0 1 18 5.492a.503.503 0 0 0 .502.508c1.095 0 2.018.62 2.36 1.656.572 1.736-.708 3.344-2.361 3.344-.346 0-.678-.071-.98-.198a1.492 1.492 0 0 0-1.638.315L11.12 15.88c-.441.441-.537 1.096-.303 1.674.217.536.256 1.164.04 1.802a2.445 2.445 0 0 1-1.654 1.547A2.506 2.506 0 0 1 6.001 18.5a.5.5 0 0 0-.5-.504Z"/></svg>
